src/images/svg/symbols/etc-usd.svg

<svg width="33" height="32" viewBox="0 0 33 32" fill="none" xmlns="http://www.w3.org/2000/svg">
<path d="M2.61328 11C2.61328 6.02944 6.64272 2 11.6133 2C16.5838 2 20.6133 6.02944 20.6133 11C20.6133 15.9706 16.5838 20 11.6133 20C6.64272 20 2.61328 15.9706 2.61328 11Z" fill="#0B8311"/>
<path d="M7.44531 11.602C8.91388 12.3819 10.4463 13.1983 11.6299 13.83L15.7802 11.602C14.2774 13.8345 13.0253 15.6931 11.6299 17.75C10.232 15.6976 8.68814 13.4329 7.44531 11.602ZM7.60493 10.9862L11.6344 8.83607L15.6114 10.9705L11.6367 13.123L7.60493 10.9862ZM11.6299 8.14718L7.44531 10.3501L11.6116 4.25L15.7802 10.3637L11.6299 8.14718Z" fill="white"/>
<path d="M11.6296 13.83L15.7799 11.602C14.2771 13.8345 11.6296 17.75 11.6296 17.75V13.83ZM11.6341 8.83607L15.6111 10.9705L11.6364 13.123L11.6341 8.83607ZM11.6296 8.14735L11.6113 4.25L15.7799 10.3637L11.6296 8.14735Z" fill="#ADCDAD"/>
<path d="M7.60547 10.9862L11.6352 11.3169L15.6122 10.9725L11.6372 13.1252L7.60547 10.9862Z" fill="#AECDAE"/>
<path d="M11.6348 11.3169L15.6118 10.9725L11.637 13.1252L11.6348 11.3169Z" fill="#5B9C5B"/>
<path d="M12.6133 21C12.6133 16.0294 16.6427 12 21.6133 12C26.5838 12 30.6133 16.0294 30.6133 21C30.6133 25.9706 26.5838 30 21.6133 30C16.6427 30 12.6133 25.9706 12.6133 21Z" fill="white"/>
<path fill-rule="evenodd" clip-rule="evenodd" d="M21.2326 12C19.4993 12.0999 17.8987 12.6903 16.5656 13.6331H26.9516C25.6184 12.6903 24.0178 12.0999 22.2845 12H22.0076H21.2326ZM14.8057 15.2657C14.393 15.7672 14.0355 16.3149 13.7382 16.8987L24.5605 16.8988H29.779C29.4816 16.3151 29.1244 15.7673 28.7114 15.2658L24.7144 15.2657H14.8057ZM12.6504 20.1809C12.6995 19.6202 12.8008 19.0747 12.9486 18.5483H30.2656C30.4135 19.0746 30.5147 19.6202 30.564 20.1809H12.6504ZM12.6538 21.8143C12.7059 22.3753 12.8109 22.9208 12.9617 23.4469H30.2527C30.4037 22.9208 30.5085 22.3752 30.5606 21.8143H12.6538ZM14.6925 26.7129C14.2747 26.212 13.912 25.6642 13.6102 25.08H24.9614L29.6041 25.08C29.3023 25.6643 28.9396 26.212 28.5218 26.7129H24.1433L14.6925 26.7129ZM21.2266 29.969L21.2539 29.97L21.2811 29.971C21.3894 29.9749 21.4979 29.9775 21.6071 29.9775C23.5138 29.9775 25.2805 29.3734 26.7356 28.3463L23.8454 28.3462H16.4788C17.8363 29.3046 19.4657 29.8945 21.2266 29.969Z" fill="#F44336"/>
<path d="M21.422 12.0046C16.8131 12.0984 13.0566 15.6569 12.6523 20.1834H21.4221V12.0046H21.422Z" fill="#283991"/>
<path d="M14.4129 17.085L14.55 17.506H14.9939L14.6348 17.7663L14.7719 18.1876L14.4129 17.9271L14.0541 18.1876L14.191 17.7663L13.832 17.506H14.2759L14.4129 17.085Z" fill="#EFEFEF"/>
<path d="M14.4129 18.5724L14.55 18.9936H14.9939L14.6348 19.254L14.7719 19.6753L14.4129 19.4148L14.0541 19.6753L14.191 19.254L13.832 18.9936H14.2759L14.4129 18.5724Z" fill="#EFEFEF"/>
<path d="M15.9037 14.8533L16.0408 15.2745H16.4846L16.1255 15.535L16.2626 15.956L15.9037 15.6958L15.5447 15.956L15.6818 15.535L15.3226 15.2745H15.7665L15.9037 14.8533Z" fill="#EFEFEF"/>
<path d="M15.9037 16.341L16.0408 16.7621H16.4846L16.1255 17.0223L16.2626 17.4436L15.9037 17.1835L15.5447 17.4436L15.6818 17.0223L15.3226 16.7621H15.7665L15.9037 16.341Z" fill="#EFEFEF"/>
<path d="M15.9037 17.8287L16.0408 18.25H16.4846L16.1255 18.51L16.2626 18.9313L15.9037 18.6709L15.5447 18.9313L15.6818 18.51L15.3226 18.25H15.7665L15.9037 17.8287Z" fill="#EFEFEF"/>
<path d="M13.2811 18.9313L13.1439 18.51L13.503 18.2498H13.0593L13.0493 18.2191C13.0006 18.3694 12.9566 18.5216 12.916 18.6755L12.9223 18.6709L13.2811 18.9313Z" fill="#EFEFEF"/>
<path d="M14.0541 16.7L14.4129 16.4395L14.7719 16.7L14.6348 16.2786L14.9938 16.0182H14.5499L14.4128 15.5972L14.2758 16.0182H14.1122C14.0818 16.0641 14.0524 16.1103 14.0229 16.1569L14.191 16.2786L14.0541 16.7Z" fill="#EFEFEF"/>
<path d="M15.9037 14.2081L16.2626 14.4683L16.1256 14.0473L16.4844 13.7868H16.2281C16.0104 13.9493 15.8003 14.1211 15.5985 14.3025L15.5444 14.4683L15.9037 14.2081Z" fill="#EFEFEF"/>
<path d="M17.0355 13.7246L17.3946 13.4642L17.7534 13.7246L17.6164 13.3033L17.9752 13.0431H17.5315L17.5128 12.9864C17.3625 13.0631 17.2136 13.1428 17.0682 13.2277L17.1724 13.3033L17.0355 13.7246Z" fill="#EFEFEF"/>
<path d="M17.3945 14.1096L17.5316 14.5305H17.9754L17.6163 14.791L17.7534 15.2123L17.3945 14.9518L17.0355 15.2123L17.1726 14.791L16.8134 14.5305H17.2573L17.3945 14.1096Z" fill="#EFEFEF"/>
<path d="M17.3945 15.5973L17.5316 16.0182H17.9754L17.6163 16.2786L17.7534 16.7L17.3945 16.4395L17.0355 16.7L17.1726 16.2786L16.8134 16.0182H17.2573L17.3945 15.5973Z" fill="#EFEFEF"/>
<path d="M17.3945 17.085L17.5316 17.506H17.9754L17.6163 17.7663L17.7534 18.1876L17.3945 17.9271L17.0355 18.1876L17.1726 17.7663L16.8134 17.506H17.2573L17.3945 17.085Z" fill="#EFEFEF"/>
<path d="M17.3945 18.5724L17.5316 18.9936H17.9754L17.6163 19.254L17.7534 19.6753L17.3945 19.4148L17.0355 19.6753L17.1726 19.254L16.8134 18.9936H17.2573L17.3945 18.5724Z" fill="#EFEFEF"/>
<path d="M18.8853 13.3656L19.0224 13.7868H19.4662L19.1073 14.0473L19.2442 14.4683L18.8853 14.2081L18.5262 14.4683L18.6634 14.0473L18.3043 13.7868H18.7481L18.8853 13.3656Z" fill="#EFEFEF"/>
<path d="M18.8853 14.8533L19.0224 15.2745H19.4662L19.1073 15.535L19.2442 15.956L18.8853 15.6958L18.5262 15.956L18.6634 15.535L18.3043 15.2745H18.7481L18.8853 14.8533Z" fill="#EFEFEF"/>
<path d="M18.8853 16.341L19.0224 16.7621H19.4662L19.1073 17.0223L19.2442 17.4436L18.8853 17.1835L18.5262 17.4436L18.6634 17.0223L18.3043 16.7621H18.7481L18.8853 16.341Z" fill="#EFEFEF"/>
<path d="M18.8853 17.8287L19.0224 18.25H19.4662L19.1073 18.51L19.2442 18.9313L18.8853 18.6709L18.5262 18.9313L18.6634 18.51L18.3043 18.25H18.7481L18.8853 17.8287Z" fill="#EFEFEF"/>
<path d="M20.3762 12.6219L20.5132 13.0431H20.957L20.598 13.3033L20.735 13.7246L20.3762 13.4641L20.017 13.7246L20.1542 13.3033L19.7951 13.0431H20.2388L20.3762 12.6219Z" fill="#EFEFEF"/>
<path d="M20.3762 14.1096L20.5132 14.5305H20.957L20.598 14.791L20.735 15.2123L20.3762 14.9518L20.017 15.2123L20.1542 14.791L19.7951 14.5305H20.2388L20.3762 14.1096Z" fill="#EFEFEF"/>
<path d="M20.3762 15.5973L20.5132 16.0182H20.957L20.598 16.2786L20.735 16.7L20.3762 16.4395L20.017 16.7L20.1542 16.2786L19.7951 16.0182H20.2388L20.3762 15.5973Z" fill="#EFEFEF"/>
<path d="M20.3762 17.085L20.5132 17.506H20.957L20.598 17.7663L20.735 18.1876L20.3762 17.9271L20.017 18.1876L20.1542 17.7663L19.7951 17.506H20.2388L20.3762 17.085Z" fill="#EFEFEF"/>
<path d="M20.3762 18.5724L20.5132 18.9936H20.957L20.598 19.254L20.735 19.6753L20.3762 19.4148L20.017 19.6753L20.1542 19.254L19.7951 18.9936H20.2388L20.3762 18.5724Z" fill="#EFEFEF"/>
</svg>

<svg width="33" height="32" fill="none" xmlns="http://www.w3.org/2000/svg"><path d="M2.613 11a9 9 0 1 1 18 0 9 9 0 0 1-18 0Z" fill="#0B8311"/><path d="M7.445 11.602c1.469.78 3.001 1.596 4.185 2.228l4.15-2.228a1985.326 1985.326 0 0 1-4.15 6.148c-1.398-2.052-2.942-4.317-4.185-6.148Zm.16-.616 4.03-2.15 3.976 2.134-3.974 2.153-4.032-2.137Zm4.025-2.839L7.445 10.35l4.167-6.1 4.168 6.114-4.15-2.217Z" fill="#fff"/><path d="m11.63 13.83 4.15-2.228c-1.503 2.232-4.15 6.148-4.15 6.148v-3.92Zm.004-4.994 3.977 2.134-3.975 2.153-.002-4.287Zm-.004-.689L11.61 4.25l4.169 6.114-4.15-2.217Z" fill="#ADCDAD"/><path d="m7.605 10.986 4.03.33 3.977-.344-3.975 2.153-4.032-2.139Z" fill="#AECDAE"/><path d="m11.635 11.317 3.977-.345-3.975 2.153-.002-1.808Z" fill="#5B9C5B"/><path d="M12.613 21a9 9 0 1 1 18 0 9 9 0 0 1-18 0Z" fill="#fff"/><path fill-rule="evenodd" clip-rule="evenodd" d="M21.233 12c-1.734.1-3.334.69-4.667 1.633h10.386A8.956 8.956 0 0 0 22.284 12H21.233Zm-6.427 3.266a8.985 8.985 0 0 0-1.068 1.633H29.78a8.978 8.978 0 0 0-1.068-1.633H14.806ZM12.65 20.18c.05-.56.15-1.106.299-1.633h17.317c.148.527.249 1.072.298 1.633H12.65Zm.004 1.633c.052.561.157 1.107.308 1.633h17.29a8.897 8.897 0 0 0 .309-1.633H12.654Zm2.039 4.899a8.99 8.99 0 0 1-1.083-1.633h15.994a8.987 8.987 0 0 1-1.082 1.633H14.693Zm6.534 3.256.027.001.027.001a8.86 8.86 0 0 0 5.455-1.625H16.479a8.859 8.859 0 0 0 4.748 1.623Z" fill="#F44336"/><path d="M21.422 12.005a8.991 8.991 0 0 0-8.77 8.178h8.77v-8.178Z" fill="#283991"/><path d="m14.413 17.085.137.421h.444l-.36.26.138.422-.36-.26-.358.26.137-.422-.359-.26h.444l.137-.421ZM14.413 18.572l.137.422h.444l-.36.26.138.421-.36-.26-.358.26.137-.421-.359-.26h.444l.137-.422ZM15.904 14.853l.137.421h.444l-.36.261.138.421-.36-.26-.358.26.137-.421-.36-.26h.445l.137-.422ZM15.904 16.341l.137.421h.444l-.36.26.138.422-.36-.26-.358.26.137-.422-.36-.26h.445l.137-.421ZM15.904 17.829l.137.421h.444l-.36.26.138.421-.36-.26-.358.26.137-.421-.36-.26h.445l.137-.421ZM13.281 18.931l-.137-.421.359-.26h-.444l-.01-.03a8.58 8.58 0 0 0-.133.456l.006-.005.36.26ZM14.054 16.7l.359-.26.359.26-.137-.421.359-.26h-.444l-.137-.422-.137.421h-.164l-.09.139.169.122-.137.421ZM15.904 14.208l.359.26-.137-.42.358-.261h-.256a8.944 8.944 0 0 0-.63.515l-.054.166.36-.26ZM17.035 13.725l.36-.26.358.26-.137-.422.36-.26h-.444l-.02-.057c-.15.077-.298.157-.444.242l.104.075-.137.422ZM17.395 14.11l.137.42h.443l-.359.261.137.421-.358-.26-.36.26.138-.421-.36-.26h.444l.137-.421ZM17.395 15.597l.137.421h.443l-.359.26.137.422-.358-.26-.36.26.138-.421-.36-.26h.444l.137-.422ZM17.395 17.085l.137.421h.443l-.359.26.137.422-.358-.26-.36.26.138-.422-.36-.26h.444l.137-.421ZM17.395 18.572l.137.422h.443l-.359.26.137.421-.358-.26-.36.26.138-.421-.36-.26h.444l.137-.422ZM18.885 13.366l.137.42h.444l-.359.261.137.421-.359-.26-.359.26.137-.42-.359-.261h.444l.137-.421ZM18.885 14.853l.137.421h.444l-.359.261.137.421-.359-.26-.359.26.137-.421-.359-.26h.444l.137-.422ZM18.885 16.341l.137.421h.444l-.359.26.137.422-.359-.26-.359.26.137-.422-.359-.26h.444l.137-.421ZM18.885 17.829l.137.421h.444l-.359.26.137.421-.359-.26-.359.26.137-.421-.359-.26h.444l.137-.421ZM20.376 12.622l.137.421h.444l-.359.26.137.422-.359-.26-.359.26.137-.422-.359-.26h.444l.137-.421ZM20.376 14.11l.137.42h.444l-.359.261.137.421-.359-.26-.359.26.137-.421-.359-.26h.444l.137-.421ZM20.376 15.597l.137.421h.444l-.359.26.137.422-.359-.26-.359.26.137-.421-.359-.26h.444l.137-.422ZM20.376 17.085l.137.421h.444l-.359.26.137.422-.359-.26-.359.26.137-.422-.359-.26h.444l.137-.421ZM20.376 18.572l.137.422h.444l-.359.26.137.421-.359-.26-.359.26.137-.421-.359-.26h.444l.137-.422Z" fill="#EFEFEF"/></svg>
